X:69
T:Lady of the Lake
M:4/4
L:1/8
Q:180
S:John Hartford's "Wild Hog in the Redbrush" transcribed by Llarry Brandon
Z:posted by Llarry Brandon 1/98
K:D
|"D"A2 B2 =c2 d2|egfa g2. d=c|"C"BAGA B=c d2| B=cBc dcBc| !
"D" ABAB =cBcd|egfa gfef|"C" gbge d=cBc|"D"AF D6| !
"D"ABAB =c2 cd|egfa g2 d=c|"C" BAGA B=c d2|B=cBc d=cBc| !
"D"ABAB =cBcd| egfa gfef|"C"gbge d=cBc|"D"AF D4 eg || !
"D"a4 a4 |abag e2 ef|"C"gfge  dega| bagf e2 eg| !
"D"a2 a2 a2 a2| abag edef|"C" gedg edBd|"D" AF D4 eg| !
"D"a2 a2 a4|abag e2 ef"C"|gfga gede|bagf e2 eg| !
"D"a2 a2 a2 a2|abag edef|"C"gedg edBd|"D" AF D6|| !
